packages/core/src/svgs/part.svg

<svg width="24" height="24" viewBox="0 0 24 24" fill="none" xmlns="http://www.w3.org/2000/svg">
<g clip-path="url(#clip0_31_15716)">
<path d="M0 0H24V24H0V0Z" fill="url(#paint0_linear_31_15716)"/>
<path d="M8.57701 6.87444C8.12235 6.87444 7.68632 7.05505 7.36483 7.37654C7.04333 7.69804 6.86272 8.13407 6.86272 8.58873V16.4496C6.86267 17.1764 7.06798 17.8885 7.45501 18.5037L7.67787 18.8573C7.00702 18.8573 6.36365 18.5908 5.88929 18.1164C5.41493 17.6421 5.14844 16.9987 5.14844 16.3279V8.58873C5.14844 7.67941 5.50966 6.80734 6.15264 6.16436C6.79562 5.52138 7.6677 5.16016 8.57701 5.16016H15.4342C16.3435 5.16016 17.2155 5.52138 17.8585 6.16436C18.5015 6.80734 18.8627 7.67941 18.8627 8.58873V15.4287C18.8627 16.338 18.5015 17.2101 17.8585 17.8531C17.2155 18.4961 16.3435 18.8573 15.4342 18.8573H10.2857C9.83107 18.8573 9.39503 18.6767 9.07354 18.3552C8.75205 18.0337 8.57144 17.5977 8.57144 17.143V9.8573C8.57144 9.51631 8.7069 9.18928 8.94801 8.94816C9.18913 8.70704 9.51616 8.57158 9.85715 8.57158H14.1429C14.4839 8.57158 14.8109 8.70704 15.052 8.94816C15.2931 9.18928 15.4286 9.51631 15.4286 9.8573V14.143C15.4286 14.484 15.2931 14.811 15.052 15.0521C14.8109 15.2933 14.4839 15.4287 14.1429 15.4287H10.2857V17.143H15.4342C15.8888 17.143 16.3248 16.9624 16.6463 16.6409C16.9678 16.3194 17.1484 15.8834 17.1484 15.4287V8.58873C17.1484 8.13407 16.9678 7.69804 16.6463 7.37654C16.3248 7.05505 15.8888 6.87444 15.4342 6.87444H8.57701ZM10.2857 13.7144H13.7143V10.2859H10.2857V13.7144Z" fill="white"/>
</g>
<defs>
<linearGradient id="paint0_linear_31_15716" x1="12" y1="0" x2="12" y2="24" gradientUnits="userSpaceOnUse">
<stop stop-color="#26F294"/>
<stop offset="1" stop-color="#45D693"/>
</linearGradient>
<clipPath id="clip0_31_15716">
<rect width="24" height="24" fill="white"/>
</clipPath>
</defs>
</svg>

<svg xmlns="http://www.w3.org/2000/svg" width="24" height="24" fill="none" viewBox="0 0 24 24"><g clip-path="url(#a)"><path fill="url(#b)" d="M0 0h24v24H0z"/><path fill="#fff" d="M8.577 6.874A1.714 1.714 0 0 0 6.863 8.59v7.86c0 .727.205 1.44.592 2.055l.223.353a2.53 2.53 0 0 1-2.53-2.53V8.59A3.43 3.43 0 0 1 8.577 5.16h6.857a3.43 3.43 0 0 1 3.429 3.429v6.84a3.43 3.43 0 0 1-3.429 3.428h-5.148a1.714 1.714 0 0 1-1.715-1.714V9.857a1.286 1.286 0 0 1 1.286-1.285h4.286a1.286 1.286 0 0 1 1.286 1.285v4.286a1.286 1.286 0 0 1-1.286 1.286h-3.857v1.714h5.148a1.714 1.714 0 0 0 1.714-1.714v-6.84a1.714 1.714 0 0 0-1.714-1.715zm1.709 6.84h3.428v-3.428h-3.428z"/></g><defs><linearGradient id="b" x1="12" x2="12" y1="0" y2="24" gradientUnits="userSpaceOnUse"><stop stop-color="#26F294"/><stop offset="1" stop-color="#45D693"/></linearGradient><clipPath id="a"><path fill="#fff" d="M0 0h24v24H0z"/></clipPath></defs></svg>
